app/dist/common/images/east-west-bancorp.svg

<svg height="18" width="18" xmlns="http://www.w3.org/2000/svg"><path d="m0 0h18v18h-18z" fill="#c62018"/><path d="m7.125 4h1.25v4.375l-1.25.272zm-1.563 0h1.25v4.708l-1.25.272zm-1.562 1.25c0-.69.56-1.25 1.25-1.25v5.04l-1.25.274zm6.875 8.75h-1.25v-4.375l1.25-.272zm1.563 0h-1.25v-4.708l1.25-.272zm1.562-1.25c0 .69-.56 1.25-1.25 1.25v-5.04l1.25-.274v4.063zm-10-1.875v-1.25h4.374l.272 1.25zm0 1.563v-1.25h4.707l.272 1.25zm1.25 1.562c-.69 0-1.25-.56-1.25-1.25h5.04l.272 1.25zm8.75-6.875v1.25h-4.374l-.272-1.25zm0-1.562v1.25h-4.707l-.272-1.25zm-1.25-1.563c.69 0 1.25.56 1.25 1.25h-5.04l-.272-1.25z" fill="#fff"/></svg>

<!-- by TradingView --><svg width="18" height="18" xmlns="http://www.w3.org/2000/svg"><path fill="#C62018" d="M0 0h18v18H0z"/><path d="M7.125 4h1.25v4.375l-1.25.272V4zM5.562 4h1.25v4.708l-1.25.272V4zM4 5.25C4 4.56 4.56 4 5.25 4v5.04L4 9.314V5.25zM10.875 14h-1.25V9.625l1.25-.272V14zM12.438 14h-1.25V9.292l1.25-.272V14zM14 12.75c0 .69-.56 1.25-1.25 1.25V8.96L14 8.686v4.063zM4 10.875v-1.25h4.374l.272 1.25H4zM4 12.438v-1.25h4.707l.272 1.25H4zM5.25 14C4.56 14 4 13.44 4 12.75h5.04L9.312 14H5.25zM14 7.125v1.25H9.626l-.272-1.25H14zM14 5.563v1.25H9.293l-.272-1.25H14zM12.75 4c.69 0 1.25.56 1.25 1.25H8.96L8.688 4h4.062z" fill="#fff"/></svg>
